X:1018
T:Mr. Robertson of Strowan's Strathspey.
M:C
L:1/8
Q:1/4=120
I: || ||
N:Aird prints it in E minor, but the one C in the tune sounds wrong as a natural
Z:Jack Campin * www.campin.me.uk * 2009
K:E Dorian
F|[B,2F2B2](.B>.A) B<E`````````E>F|A>d  B/A/G/F/    D/E/F/G/    Ad |\
  [B,2F2B2] (B>A)  B<d`````````e>f|dB  (d/B/).A/.F/ E2          E :|
d| e>f```````ed  (TB/A/).B/.d/ e2 |d>e``dB         (A/F/).A/.B/ d2 |\
   e>f```````e>d   e/d/e/f/    g>e|d>B (d/B/)A/F/   E2          EB |
   e>f```````ed  (TB/A/B/)d/   e2 |d>e``d>B         A/F/A/B/    d>f|\
   g>e```````f>d   e>c`````````d>A|d>B (B/A/)G/F/   E2          E |]
<end>
<start>
